X:1
T:Title
%%score { ( 1 4 ) | ( 2 3 ) }
L:1/8
M:4/4
K:G
V:1 treble nm="Grand Piano"
V:4 treble 
V:2 bass 
V:3 bass 
V:1
 z4 z2[Q:1/4=100] [B,D]2 | [B,D]3 [B,G] [DG]2 A2 | B2 [B,G]4 [DG]2 | [EG]3 [DF] E2 G2 | D6 D2 | %5
 D3 A A2 B2 | c2 A4 A2 | B3 B A2 G2 | A6 D2 | [B,D]3 [B,G] [DG]2 A2 | B2 [B,G]4 [DG]2 | %11
 [EG]3 [DF] E2 G2 | D6 D2 | G3 A B2 c2 | d2 B6 | B3 D B A2 G |[M:3/4] [B,G]6 |[M:1/4] [DB]2 | %18
[M:4/4] [DB]3 [B,D] [B,A]2 [B,G]2 | [CF]2 [DF][FA] [Fc]2 [Fc]2 | [Fc]3 [DF] [FB]2 [FA]2 | %21
[M:7/8] G2 G B d3 |[M:1/4] [Fd]2 |[M:4/4] d3 B B2 GG | [FA]2 B2 [Ec]4 | B3 D B A2 G | %26
[M:7/8] G2- [CG-]2 [B,G]3 |] %27
V:2
 z4 z2 [G,,G,]2 | [G,,G,]3 [G,,G,] [B,,G,]2 [D,F,D]2 | [G,D]2 [G,,G,]4 [B,,G,]2 | %3
 [C,G,]3 [C,G,] [C,G,C]2 [E,G,C]2 | [G,B,]6 [G,B,]2 | [D,F,A,]3 [D,F,D] [D,F,D]2 [D,G,D]2 | %6
 [D,A,D]2 [D,F,D]4 [D,F,D]2 | [G,D]3 [G,D] [F,A,D]2 [E,A,^C]2 | [D,F,D]6 [D,F,C]2 | %9
 [G,,G,]3 [G,,G,] [B,,G,]2 [D,F,D]2 | [G,D]2 [G,,G,]4 [B,,G,]2 | [C,G,]3 [C,G,] [C,G,C]2 [E,G,C]2 | %12
 [G,B,]6 [G,B,]2 | [G,B,D]3 [G,CD] [G,DG]2 [G,A,G]2 | [G,B,G]2[K:bass] [G,D]6 | %15
 [D,G,D]3 [D,G,B,] [G,D] [F,C]2 [D,B,] |[M:3/4] [G,,D,]6 |[M:1/4] [G,,G,]2 | %18
[M:4/4] [G,,G,]3 [G,,G,] [G,,D,]2 [G,,G,]2 | [D,A,]2 [D,A,]2 [D,A,]2 [D,A,]2 | %20
 [D,A,]3 [D,A,] [D,D]2 [D,C]2 |[M:7/8] [G,B,]2[K:treble] [G,B,D] [G,DG] [G,B,G]3 |[M:1/4] [D,A,]2 | %23
[M:4/4] [G,B,G]3 [G,DG] [G,DG]2[K:bass] [G,B,][G,B,] | [D,D]2 [G,=F]2 [C,G,]4 | %25
 [D,G,D]3 [D,G,B,] [G,D] [F,C]2 [D,B,] |[M:7/8] D,2 z z z z2 |] %27
V:3
 x8 | x8 | x8 | x8 | x8 | x8 | x8 | x8 | x8 | x8 | x8 | x8 | x8 | x8 | x2[K:bass] x6 | z4 D,4 | %16
[M:3/4] x6 |[M:1/4] x2 |[M:4/4] x8 | x8 | x8 |[M:7/8] x2[K:treble] x5 |[M:1/4] x2 | %23
[M:4/4] x6[K:bass] x2 | x8 | z4 D,4 |[M:7/8] G,,2- [G,,-E,]2 [G,,D,]3 |] %27
V:4
 x8 | x8 | x8 | x8 | x8 | x8 | x8 | x8 | x8 | x8 | x8 | x8 | x8 | x8 | x8 | x8 |[M:3/4] x6 | %17
[M:1/4] x2 |[M:4/4] x8 | x8 | x8 |[M:7/8] x7 |[M:1/4] x2 |[M:4/4] x8 | x8 | x8 | %26
[M:7/8] B,2 z z z z2 |] %27

